icon-svg/apc-ups-upright.svg

<svg xmlns="http://www.w3.org/2000/svg" fill="#44739e" viewBox="0 0 24 24"><path d="M13.5 3.219 4.7 2.97a.7.7 0 0 0-.5.189.628.628 0 0 0-.2.478l.453 16.1a.661.661 0 0 0 .6.627l8.35.991a.9.9 0 0 0 .088 0 .694.694 0 0 0 .451-.163.626.626 0 0 0 .232-.487V3.868a.664.664 0 0 0-.674-.649m.394 17.488a.376.376 0 0 1-.14.294.42.42 0 0 1-.326.095l-8.349-.99a.4.4 0 0 1-.363-.378L4.26 3.63a.375.375 0 0 1 .122-.288.423.423 0 0 1 .292-.115l8.815.249a.4.4 0 0 1 .4.392zm-.376-18.131-8.8-.249a1.412 1.412 0 0 0-1 .377 1.262 1.262 0 0 0-.4.95l.454 16.1A1.314 1.314 0 0 0 4.958 21l8.349.99a1.4 1.4 0 0 0 .17.01 1.414 1.414 0 0 0 .9-.323 1.265 1.265 0 0 0 .462-.97V3.868a1.322 1.322 0 0 0-1.321-1.292m1.053 18.131a1.012 1.012 0 0 1-.37.777 1.13 1.13 0 0 1-.724.259 1.2 1.2 0 0 1-.136-.008l-8.349-.991a1.052 1.052 0 0 1-.958-1L3.58 3.647a1.01 1.01 0 0 1 .32-.761 1.132 1.132 0 0 1 .774-.3h.031l8.8.249a1.059 1.059 0 0 1 1.061 1.035ZM13.485 3.605l-8.811-.249a.28.28 0 0 0-.2.077.248.248 0 0 0-.082.193l.453 16.1a.269.269 0 0 0 .244.255l8.349.99a.278.278 0 0 0 .219-.064.249.249 0 0 0 .094-.2V3.868a.269.269 0 0 0-.266-.263M10.5 9.017c.014.194-.7.3-1.516.248-.755-.052-1.325-.227-1.325-.394s.561-.28 1.3-.254c.806.027 1.523.207 1.541.4M8.9 5.874c.806.028 1.523.207 1.537.4s-.7.3-1.516.249C8.167 6.471 7.6 6.3 7.6 6.129s.558-.28 1.3-.255m0 1.372c.806.027 1.523.207 1.537.4s-.7.305-1.516.249C8.167 7.842 7.6 7.667 7.6 7.5s.558-.28 1.3-.254M7.791 18.723l-.191-.562-.608-.061-.176.511-.225-.027.576-1.629.269.023.6 1.779zm1.193-5.487a1.065 1.065 0 0 1 1.1 1.035.842.842 0 0 1-1.133.706 1.061 1.061 0 0 1-.816-.962.8.8 0 0 1 .849-.779m.3 4.777a.724.724 0 0 1-.564.134.9.9 0 0 1-.189-.035v.7l-.231-.029v-1.716a2.7 2.7 0 0 1 .449 0 .85.85 0 0 1 .518.191.513.513 0 0 1 .163.386.462.462 0 0 1-.147.369zm1.364.881a1.06 1.06 0 0 0 .418-.028l.053.194a1.31 1.31 0 0 1-.523.024 1 1 0 0 1-.952-1.016.838.838 0 0 1 1.007-.852 1.22 1.22 0 0 1 .471.121l-.062.188a1.05 1.05 0 0 0-.4-.111.627.627 0 0 0-.757.672.775.775 0 0 0 .744.808zm-1.897-1.643a1 1 0 0 0-.221 0v.678a.86.86 0 0 0 .194.038c.286.029.462-.086.462-.33s-.173-.363-.435-.386M3.187 3.425l-.349-.01.543 16.124.239.03-.448-15.912a1.3 1.3 0 0 1 .015-.232m11.793.443v16.84a1.4 1.4 0 0 1-.027.264l.9.111.313-17.283-1.191-.034c.003.034.005.068.005.102m-.199-.71 2.246.043L21.676 2H12.9l-3.566.329 4.186.119a1.509 1.509 0 0 1 1.261.71M7.3 17.156q-.0375.15-.087.3l-.167.474.519.055-.17-.509c-.047-.116-.072-.219-.095-.32M2.838 2.93l.518.01.037-.062ZM16.59 20.313l4.639-7.147.446-10.935-4.787 1.548Z"/></svg>

<?xml version="1.0" encoding="UTF-8"?>
<svg width="24px" fill="#44739e" height="24px" viewBox="0 0 24 24" version="1.1" xmlns="http://www.w3.org/2000/svg" xmlns:xlink="http://www.w3.org/1999/xlink">
            <path d="M 13.5,3.219 4.7,2.97 A 0.7,0.7 0 0 0 4.2,3.159 0.628,0.628 0 0 0 4,3.637 l 0.453,16.1 a 0.661,0.661 0 0 0 0.6,0.627 l 8.35,0.991 a 0.865,0.865 0 0 0 0.088,0 0.694,0.694 0 0 0 0.451,-0.163 0.626,0.626 0 0 0 0.232,-0.487 V 3.868 A 0.664,0.664 0 0 0 13.5,3.219 Z m 0.394,17.488 a 0.376,0.376 0 0 1 -0.14,0.294 0.419,0.419 0 0 1 -0.326,0.095 L 5.079,20.106 A 0.4,0.4 0 0 1 4.716,19.728 L 4.26,3.63 A 0.375,0.375 0 0 1 4.382,3.342 0.423,0.423 0 0 1 4.674,3.227 l 8.815,0.249 a 0.4,0.4 0 0 1 0.4,0.392 z M 13.518,2.576 4.718,2.327 a 1.412,1.412 0 0 0 -1,0.377 1.262,1.262 0 0 0 -0.4,0.95 l 0.454,16.1 A 1.314,1.314 0 0 0 4.958,21 l 8.349,0.99 a 1.373,1.373 0 0 0 0.17,0.01 1.414,1.414 0 0 0 0.9,-0.323 1.265,1.265 0 0 0 0.462,-0.97 V 3.868 A 1.322,1.322 0 0 0 13.518,2.576 Z m 1.053,18.131 a 1.012,1.012 0 0 1 -0.37,0.777 1.13,1.13 0 0 1 -0.724,0.259 1.226,1.226 0 0 1 -0.136,-0.008 L 4.992,20.744 a 1.052,1.052 0 0 1 -0.958,-1 L 3.58,3.647 A 1.011,1.011 0 0 1 3.9,2.886 1.132,1.132 0 0 1 4.674,2.586 h 0.031 l 8.8,0.249 A 1.059,1.059 0 0 1 14.566,3.87 Z M 13.485,3.605 4.674,3.356 a 0.281,0.281 0 0 0 -0.2,0.077 0.248,0.248 0 0 0 -0.082,0.193 l 0.453,16.1 a 0.269,0.269 0 0 0 0.244,0.255 l 8.349,0.99 a 0.278,0.278 0 0 0 0.219,-0.064 0.249,0.249 0 0 0 0.094,-0.2 V 3.868 A 0.269,0.269 0 0 0 13.485,3.605 Z M 10.5,9.017 C 10.514,9.211 9.8,9.317 8.984,9.265 8.229,9.213 7.659,9.038 7.659,8.871 c 0,-0.167 0.561,-0.28 1.3,-0.254 0.806,0.027 1.523,0.207 1.541,0.4 z M 8.9,5.874 c 0.806,0.028 1.523,0.207 1.537,0.4 0.014,0.193 -0.7,0.3 -1.516,0.249 C 8.167,6.471 7.6,6.3 7.6,6.129 7.6,5.958 8.158,5.849 8.9,5.874 Z m 0,1.372 c 0.806,0.027 1.523,0.207 1.537,0.4 0.014,0.193 -0.7,0.305 -1.516,0.249 C 8.167,7.842 7.6,7.667 7.6,7.5 7.6,7.333 8.158,7.22 8.9,7.246 Z M 7.791,18.723 7.6,18.161 6.992,18.1 6.816,18.611 6.591,18.584 l 0.576,-1.629 0.269,0.023 0.6,1.779 z m 1.193,-5.487 a 1.065,1.065 0 0 1 1.1,1.035 0.842,0.842 0 0 1 -1.133,0.706 1.061,1.061 0 0 1 -0.816,-0.962 0.8,0.8 0 0 1 0.849,-0.779 z m 0.3,4.777 A 0.724,0.724 0 0 1 8.72,18.147 0.9,0.9 0 0 1 8.531,18.112 v 0.7 L 8.3,18.783 v -1.716 a 2.723,2.723 0 0 1 0.449,0 0.849,0.849 0 0 1 0.518,0.191 0.513,0.513 0 0 1 0.163,0.386 0.462,0.462 0 0 1 -0.147,0.369 z m 1.364,0.881 a 1.058,1.058 0 0 0 0.418,-0.028 l 0.053,0.194 a 1.308,1.308 0 0 1 -0.523,0.024 1,1 0 0 1 -0.952,-1.016 0.838,0.838 0 0 1 1.007,-0.852 1.217,1.217 0 0 1 0.471,0.121 l -0.062,0.188 a 1.054,1.054 0 0 0 -0.4,-0.111 0.627,0.627 0 0 0 -0.757,0.672 0.775,0.775 0 0 0 0.744,0.808 z M 8.751,17.251 a 0.993,0.993 0 0 0 -0.221,0 v 0.678 a 0.864,0.864 0 0 0 0.194,0.038 c 0.286,0.029 0.462,-0.086 0.462,-0.33 0,-0.244 -0.173,-0.363 -0.435,-0.386 z M 3.187,3.425 2.838,3.415 3.381,19.539 3.62,19.569 3.172,3.657 A 1.286,1.286 0 0 1 3.187,3.425 Z M 14.98,3.868 v 16.84 a 1.375,1.375 0 0 1 -0.027,0.264 l 0.9,0.111 L 16.166,3.8 14.975,3.766 C 14.978,3.8 14.98,3.834 14.98,3.868 Z M 14.781,3.158 17.027,3.201 21.676,2 H 12.9 L 9.334,2.329 13.52,2.448 a 1.509,1.509 0 0 1 1.261,0.71 z M 7.3,17.156 v 0 c -0.025,0.1 -0.054,0.2 -0.087,0.3 L 7.046,17.93 7.565,17.985 7.395,17.476 C 7.348,17.36 7.323,17.257 7.3,17.156 Z M 2.838,2.93 3.356,2.94 3.393,2.878 Z M 16.59,20.313 21.229,13.166 21.675,2.231 16.888,3.779 Z"></path>

</svg>
